Gruvbox-Material-Icons/actions/16/path-tweak-roughen.svg

<svg width="16" height="16" version="1.1" xmlns="http://www.w3.org/2000/svg">
  <defs>
    <style id="current-color-scheme" type="text/css">.ColorScheme-Text { color:#ebdbb2; } .ColorScheme-Highlight { color:#458588; }</style>
  </defs>
  <path class="ColorScheme-Text" d="m0 7 3-4 3 3 3-4 1.75 5.5 2.25-3.5 3 3v5l-4-4-1 5-2-4-4 4-2-5-3 4z" fill="currentColor"/>
</svg>

<svg xmlns="http://www.w3.org/2000/svg" width="16" height="16" version="1.1">
 <defs>
  <style id="current-color-scheme" type="text/css">
   .ColorScheme-Text { color:#ebdbb2; } .ColorScheme-Highlight { color:#458588; }
  </style>
 </defs>
 <path style="fill:currentColor" class="ColorScheme-Text" d="M 0,7 3,3 6,6 9,2 10.75,7.5 13,4 16,7 V 12 L 12,8 11,13 9,9 5,13 3,8 0,12 Z"/>
</svg>
